X:1
T:LA Paloma
T:La Paloma
T:String Quartet
T:Sebastian de Yvradier (1809-1865)
%%score [ 1 2 3 4 ]
L:1/8
Q:1/4=120
M:4/4
K:F
V:1 treble nm="Violin I"
V:2 treble nm="Violin II"
V:3 alto nm="Viola"
V:4 bass nm="Violoncello"
V:1
"^Rumba" z8 | z8 | z8 | z4 z2!mf! c2 |: c8 | (3z2 A2 B2 c2 d2 | (3e2 f2 d2 e2 c2 | B8- | B4 z2 g2 | %9
 g8 | (3z2 a2 f2 g2 e2 | (3f2 e2 d2 c2 B2 | A8- | A4 z2 c2 | c8 | (3z2 A2 B2 c2 d2 | %16
 (3e2 f2 d2 e2 c2 | B8- | B4 z2 g2 | g8 | (3z2 a2 f2 g2 e2 | (3f2 e2 d2 c2 B2 | A8- | A4 z2 c2 || %24
"^A" (3f2 f2 f2 f2 e2 | (3g2 g2 f2 e2 d2 | de/d/ c6- | c4 z4 | (3e2 e2 e2 e2 d2 | %29
 (3d2 c2 c2 c2 d2 | c/B/A- A6- | A4 z2 c2 | (3f2 f2 f2 f2 e2 | (3g2 g2 f2 e2 d2 | de/d/ c6- | %35
 c4 z4 | (3e2 e2 e2 e2 d2 | (3d2 c2 c2 c2 d2 | c/B/A- A6 | (3z2 !>!c2 !>!c2 (3!>!c2 !>!d2 !>!=B2 || %40
"^B" c8 | (3z2 c2 c2 (3c2 c2 d2 | e4 g4 | (3z2 a2 f2 (3g2 e2 f2 | (3d2 e2 f2 (3a2 g2 z2 | %45
 (3G2 A2 B2 d2 c2!dacoda! | f8 | z4 z2 c2 :|O z8 | z8 | z8 | z8 | z8 |!p! z2 z (d c).B.A.G | %54
 .F2 z2 !fermata!_A4 |] %55
V:2
!f! .f2 z c .f2 !>!c2 | .e e2 c .e2 !>!c2 | .f2 z c .f2 !>!c2 | .e2 z2 z4 |: %4
!mf! z !>!A2 .A z .A z .A | z !>!A2 .A z .A z .A | z !>!A2 .A z .A z .A | z !>!G2 .G z .G z .G | %8
 z !>!G2 .G z .G z .G | z !>!B2 .B z .B z .B | z !>!B2 .B z .B z .B | z !>!B2 .B z .B z .B | %12
 z !>!A2 .A z .A z .A | z !>!A2 .A z .A z .A | z !>!A2 .A z .A z .A | z !>!A2 .A z .A z .A | %16
 z !>!A2 .A z .A z .A | z !>!G2 .G z .G z .G | z !>!G2 .G z .G z .G | z !>!B2 .B z .B z .B | %20
 z !>!B2 .B z .B z .B | z !>!B2 .B z .B z .B | z !>!A2 .A z .A z .A | z !>!A2 .A z .A z .A || %24
 z !>!A2 .A z .A z .A | z !>!A2 .A z .A z .A | z !>!B2 .B z .B z .B | z !>!B2 .B z .B z .B | %28
 z !>!B2 .B z .B z .B | z !>!B2 .B z .B z .B | z !>!F2 .F z .F z .F | z !>!F2 .F z .F z .F | %32
 z !>!A2 .A z .A z .A | z !>!A2 .A z .A z .A | z !>!B2 .B z .B z .B | z !>!B2 .B z .B z .B | %36
 z !>!B2 .B z .B z .B | z !>!B2 .B z .B z .B | z !>!F2 .F z .F !tenuto!F.F | %39
 (3z2 !>!A2 !>!A2 (3!>!A2 !>!B2 !>!^F2 || z !>!A2 .A z .A z .A | z !>!A2 .A z .A z .A | %42
 z !>!B2 .B z .B z .B | z !>!B2 .B z .B z .B | z !>!B2 .B z .B z .B | z !>!B2 .B z .B z .B | %46
 z !>!A2 .A z .A z .A | .G2 z2 z4 :|!f! .f2 z c .f2 !>!c2 | .e e2 c .e2 !>!c2 | .f2 z c .f2 !>!c2 | %51
 .e e2 c .e2 !>!c2 | .f2 z c .f2 !>!c2 | .e2 z2 z4 |!p! z4 !fermata!E4 |] %55
V:3
!f! .A2 z A .A2 !>!A2 | .G G2 G .G2 !>!B2 | A2 z A .A2 !>!A2 | .G2 z2 z4 |: %4
!mf! z !>!F2 .F z .F z .F | z !>!F2 .F z .F z .F | z !>!F2 .F z .F z .F | z !>!E2 .E z .E z .E | %8
 z !>!E2 .E z .E z .E | z !>!E2 .E z .E z .E | z !>!E2 .E z .E z .E | z !>!E2 .E z .E z .E | %12
 z !>!F2 .F z .F z .F | z !>!F2 .F z .F z .F | z !>!F2 .F z .F z .F | z !>!F2 .F z .F z .F | %16
 z !>!F2 .F z .F z .F | z !>!E2 .E z .E z .E | z !>!E2 .E z .E z .E | z !>!E2 .E z .E z .E | %20
 z !>!E2 .E z .E z .E | z !>!E2 .E z .E z .E | z !>!F2 .F z .F z .F | z !>!F2 .F z .F z .F || %24
 z !>!F2 .F z .F z .F | z !>!F2 .F z .F z .F | z !>!E2 .E z .E z .E | z !>!E2 .E z .E z .E | %28
 z !>!E2 .E z .E z .E | z !>!E2 .E z .E z .E | z !>!D2 .D z .D z .D | z !>!D2 .D z .D z .D | %32
 z !>!F2 .F z .F z .F | z !>!F2 .F z .F z .F | z !>!E2 .E z .E z .E | z !>!E2 .E z .E z .E | %36
 z !>!E2 .E z .E z .E | z !>!E2 .E z .E z .E | z !>!D2 .D z .D D.D | (3z2 F2 F2 (3F2 F2 F2 || %40
 z !>!F2 .F z .F z .F | z !>!F2 .F z .F z .F | z !>!E2 .E z .E z .E | z !>!E2 .E z .E z .E | %44
 z !>!E2 .E z .E z .E | z !>!E2 .E z .E z .E | z !>!F2 .F z .F z .F | .E2 z2 z4 :| %48
!f! .A2 z A .A2 !>!A2 | .G G2 G .G2 !>!B2 | .A2 z A .A2 !>!A2 | .G G2 G .G2 !>!B2 | %52
 .A2 z A .A2 !>!A2 | .G2 z2 z4 |!p! z4 !fermata!B,4 |] %55
V:4
!f! .F,2 z F, .F,2 !>!F,2 | .C, C,2 C, .C,2 !>!E,2 | .F,2 z F, .F,2 !>!D,2 | .C,2 z2 z4 |: %4
!mf! .F,2 z (C, .F,2) !>!C,2 | .F,2 z (C, .F,2) !>!C,2 | .F,2 z (C, .F,2) !>!C,2 | %7
 .C,2 z (G,, .C,2) !>!G,,2 | .C,2 z (G,, .C,2) !>!G,,2 | .C,2 z (G,, .C,2) !>!G,,2 | %10
 .C,2 z (G,, .C,2) !>!G,,2 | .C,2 z (G,, .C,2) (D,E,) | .F,2 z F, .F,2 !>!C,2 | %13
 .F,2 z F, .F,2 !>!C,2 | .F,2 z F, .F,2 !>!C,2 | .F,2 z F, .F,2 !>!C,2 | .F,2 z F, .F,2 !>!C,2 | %17
 .C,2 z C, .C,2 !>!G,,2 | .C,2 z C, .C,2 !>!G,,2 | .C,2 z C, .C,2 !>!G,,2 | %20
 .C,2 z C, .C,2 !>!G,,2 | .C,2 z C, .C,2 (D,E,) | .F,2 z F, .F,2 !>!C,2 | .F,2 z F, .F,2 !>!C,2 || %24
 .F,2 z F, .F,2 !>!C,2 | .F,2 z F, .F,2 !>!C,2 | .C,2 z C, .C,2 !>!G,,2 | .C,2 z C, .C,2 !>!G,,2 | %28
 .C,2 z C, .C,2 !>!G,,2 | .C,2 z C, .C,2 D,E, | .F,2 z F, .F,2 !>!C,2 | .F,2 z F, .F,2 !>!C,2 | %32
 .F,2 z F, .F,2 !>!C,2 | .F,2 z F, .F,2 !>!C,2 | .C,2 z C, .C,2 !>!G,,2 | .C,2 z C, .C,2 !>!G,,2 | %36
 .C,2 z C, .C,2 !>!G,,2 | .C,2 z C, .C,2 D,E, | .F,2 z C, .F,2 D,C, | z8 || .F,2 z F, .F,2 !>!C,2 | %41
 .F,2 z F, .F,2 !>!C,2 | .C,2 z C, .C,2 !>!G,,2 | .C,2 z C, .C,2 !>!G,,2 | .C,2 z C, .C,2 !>!G,,2 | %45
 .C,2 z C, .C,2 D,E, | .F,2 z F, .F,2 !>!E,!>!D, | .C,2 z2 z4 :| .F,2 z F, .F,2 !>!F,2 | %49
 .C, C,2 C, .C,2 !>!E,2 | .F,2 z F, .F,2 !>!D,2 | .C, C,2 C, .C,2 !>!E,2 | .F,2 z F, .F,2 !>!D,2 | %53
 .C,2 z2 z4 |!p! z4 !fermata!C,4 |] %55

